X: 1
T: Gerry Commane's
M: 4/4
L: 1/8
R: reel
S: Mike Rafferty
N: The last ~G2 in each part is sometimes overblown into the next octave
K: Dmaj
d2ed cAGE|FAAG AB=cA|d2ed cAGB|EGGF G2AG|
FAEA DEFG|Azdc defg|~a2ge fdez|1 dcAF ~G2fe:|2 dcAF ~G2fg:|
|:azab agfg|abaf g2fg|ad (3fed Adfe|defa ~G2fg|
azag efed|cAde ~f3g|a2ge fdez|1 dcAF ~g2fg:|2 fdAF ~G2fe:|
